X:192
T:Paddy Fahey's Jig
M:6/8
L:1/8
K:G
"G"DGA B3|"C"cBc "D"d2g|"G"gfd "Em"Bcd|"C"cAG "D(F)"F3|
"G"DGA BAB|"C"cBc "D7"d2g|"G"gfd "Em"Bcd|"D"cAF "G"G3:|
Bd|"G"g2d "D7"fga|"G"gfd Bcd|"Am"cAA "D"f3|"Am"agf "D7"def|
"G"g2a bag|"D"fdg fdc|"Em"B3 "C"cAd|"D"cAF "G"G3:|
